public/svgs/engagement/sponsor.svg

<svg width="1em" height="1em" viewBox="0 0 20 20" fill="current" xmlns="http://www.w3.org/2000/svg">
    <path
        d="M15.5603 16.9668H0.893311V7.43359H15.5603V16.9668ZM1.62671 16.2334H3.09351V14.7676H1.62671V16.2334ZM13.3601 16.2334H14.8269V14.7676H13.3601V16.2334ZM8.22729 9.70703C6.85058 9.70721 5.7344 10.8235 5.73413 12.2002C5.73431 13.577 6.85052 14.6942 8.22729 14.6943C9.60407 14.6942 10.7203 13.577 10.7205 12.2002C10.7202 10.8235 9.60401 9.7072 8.22729 9.70703ZM19.113 12.4404L16.6599 12.8438V6.33301H3.24487L3.09351 5.41406L17.5652 3.0332L19.113 12.4404ZM1.62671 9.63379H3.09351V8.16699H1.62671V9.63379ZM13.3601 9.63379H14.8269V8.16699H13.3601V9.63379Z"
        fill="current" />
</svg>

<svg xmlns="http://www.w3.org/2000/svg" width="1em" height="1em" fill="current" viewBox="0 0 20 20"><path d="M15.56 16.967H.893V7.434H15.56zm-13.933-.734h1.467v-1.465H1.627zm11.733 0h1.467v-1.465H13.36zM8.227 9.707a2.494 2.494 0 1 0 .001 4.988 2.494 2.494 0 0 0 0-4.988m10.886 2.733-2.453.404V6.333H3.245l-.151-.919 14.471-2.38zM1.627 9.634h1.467V8.167H1.627zm11.733 0h1.467V8.167H13.36z"/></svg>
